X: 20143
T: Jizaique
R: reel
M: 4/4
K: Eminor
B2|:E2 GA B2 cB|A3 G F3/2G/ AB|
E2 GA B2 cB|1 F2 G2 A3 B:|2 F2 G2 A4||
|:cB c/B/A Bc B/A/G|EF GA B4|
cd c/B/A Bc B/A/G|1 EG F/E/D D4:|2 EG F/E/D E4|

